X:360
T:John Naughton's
R:Jig
S:Lucy Farr, Galway (fiddle).
D:Lucy Farr - 'Hearth and Home'
Q:300
M:6/8
Z:Bernie Stocks
K:G
|: DGG BGG | dGG Bdd | d2e dBG |1 AGA BGE :|2 AGE G3 :| Bdd dBd | egg g2e |
d3 B2G | AGE GED | Bdd dBd | egg g2e | d3 B2G | AGG G2A | Bdd dBd |
egg g2e | d3 B2G | AGE GED | DGG BGG | dGG Bdd | d2e dBG | AGE G3 ||
